X: 26506
T: Michael O'Conor
R: jig
M: 6/8
K: Dmajor
|:a2g f2d|ege cAc|d3 dcB|cBe A2a|
f2d faf|gbe cAc|d2B ecA|d3 d3:|
|:fga afd|afd d2a|gab bge|bge e2g|
fga aba|d2f afa|b2e cAc|d3 d3:|

